X:1
T:Title
%%score { ( 1 4 ) | ( 2 3 ) }
L:1/8
M:4/4
K:G
V:1 treble nm="Grand Piano"
V:4 treble 
V:2 bass 
V:3 bass 
V:1
 z4 z2[Q:1/4=100] D2 | B4 B2 A2 | G6 D2 | c4 c2 B2 | A6 D2 | [Dd]4 [Dd]2 [Dc]2 | %6
 [DB]4 [DG]2 [DG]2 | B2 A2 [B,DG]2 [A,CF]2 |[M:3/4] [G,B,G]6 |[M:1/4] [B,DG]2 | %10
[M:4/4] [DFA]4 D2 [DFA]2 | [DGB]4 [B,DG]2 [DGB]2 | [DFc]4 [DGB]2 [DGB]2 | [DFA]6 D2 | G4 A2 B2 | %15
 d2 c2 [EB]2 [A,EA]2 | [B,DG]4 [CDA]2 [A,DF]2 |[M:3/4] [B,DG]6 |] %18
V:2
 z4 z2 D,2 | [G,D]4 [G,D]2 [G,C]2 | [G,B,]6 [G,B,]2 | [D,A,D]4 [D,A,D]2 [D,G,D]2 | %4
 [D,F,D]6 [D,F,]2 | [B,,G,]4 [B,,G,]2 [A,,F,]2 | [G,,G,]4 [B,,G,]2 [B,,G,]2 | G,2 z2 z4 | %8
[M:3/4] G,,6 |[M:1/4] G,,2 |[M:4/4] D,4 D,2 D,2 | G,4 G,2 G,2 | A,4 G,2 G,2 | D,6 D,2 | %14
 [G,B,]4 [G,C]2 [G,D]2 | [C,G,]4 [C,G,]2 C,2 | D,4 D,2 D,2 |[M:3/4] G,,6 |] %18
V:3
 x8 | x8 | x8 | x8 | x8 | x8 | x8 | [D,D]2- [D,CD]2 D,2 D,2 |[M:3/4] x6 |[M:1/4] x2 |[M:4/4] x8 | %11
 x8 | x8 | x8 | x8 | x8 | x8 |[M:3/4] x6 |] %18
V:4
 x8 | x8 | x8 | x8 | x8 | x8 | x8 | x8 |[M:3/4] x6 |[M:1/4] x2 |[M:4/4] x8 | x8 | x8 | x8 | x8 | %15
 E4 z4 | x8 |[M:3/4] x6 |] %18

